docs/img/icons/vk.svg

<svg width="38" height="37" viewBox="0 0 38 37" fill="none" xmlns="http://www.w3.org/2000/svg">
<rect x="0.318695" width="37.3627" height="36.2823" rx="18.1412" fill="white"/>
<path d="M19.9178 24.4906C12.8968 24.4906 8.89216 19.7237 8.7253 11.7917H12.2422C12.3577 17.6136 14.9505 20.0797 17.0041 20.5881V11.7917H20.3157V16.8128C22.3436 16.5967 24.4743 14.3086 25.1931 11.7917H28.5046C28.2338 13.0971 27.6939 14.333 26.9187 15.4223C26.1435 16.5115 25.1497 17.4306 23.9994 18.1221C25.2834 18.7539 26.4174 19.6482 27.3268 20.746C28.2361 21.8438 28.9 23.12 29.2748 24.4906H25.6295C25.2931 23.3002 24.6095 22.2345 23.6642 21.4273C22.7189 20.62 21.5541 20.107 20.3157 19.9526V24.4906H19.9178V24.4906Z" fill="#0B0B0B"/>
</svg>

<svg width="38" height="37" fill="none" xmlns="http://www.w3.org/2000/svg"><rect x=".319" width="37.363" height="36.282" rx="18.141" fill="#fff"/><path d="M19.918 24.49c-7.021 0-11.026-4.766-11.193-12.698h3.517c.116 5.822 2.708 8.288 4.762 8.796v-8.796h3.312v5.02c2.028-.215 4.158-2.503 4.877-5.02h3.312a9.638 9.638 0 01-1.586 3.63 9.744 9.744 0 01-2.92 2.7 10.123 10.123 0 013.328 2.624 10.01 10.01 0 011.948 3.745H25.63a6.272 6.272 0 00-1.966-3.064 6.37 6.37 0 00-3.348-1.474v4.538h-.398z" fill="#0B0B0B"/></svg>
